X: 24156
T: Loon And His Quine, The
R: reel
M: 4/4
K: Gmajor
|:B2AG FGED-|DBAG FGG/A/B|c3e dBG2-|GA2G ABAG|
ABAG FGD2-|DBAG FGG/A/B|c3e dBGA-|1 AGAB GAAG:|2 AGAB GBdG||
|:deed egd2-|dAAG BcdG|deed egf2|fd (3fga gfdB|
deed egB2-|BAAG ABGF|EFGF GAGB|dGBd deed|
egd2- dAAG|BcdG deed|egf2 fd (3fga|gfdB deed|
egB2- BAAG|ABGF EFGF|GAG2- GAAG||

